X:1
T:Ground Bass Exercise Templates
T:Ground Bass Exercise Templates
T:Purcell: Sonata in G Minor Z.807 
T:Ground Bass Exercise Templates
T:CC0 1.0 Universal (Public Domain). Mark Gotham and FourScoreAndMore.org waive all rights to this document.
Z:CC0 1.0 Universal (Public Domain). Mark Gotham and FourScoreAndMore.org waive all rights to this document.
L:1/8
M:3/4
K:Gmin
V:1 bass nm="Piano"
V:1
 G,6 | F,6 | E,6 | D,3 C, B,,2 | C,2 D,4 | G,6 | F,6 | E,6 | D,3 C, B,,2 | C,2 D,4 | G,6 | F,6 | %12
 E,6 | D,3 C, B,,2 | C,2 D,4 | G,6 | F,6 | E,6 | D,3 C, B,,2 | C,2 D,4 | G,6 | F,6 | E,6 | %23
 D,3 C, B,,2 | C,2 D,4 |] %25

